X: 305617
T: MISS MC. PHEARSON'S RELL
C:
%R: reel, hornpipe
B: Elias Howe "The Musician's Companion" Part 3 1844 p.76 #2
S: http://imslp.org/wiki/The_Musician's_Companion_(Howe,_Elias)
Z: 2015 John Chambers <jc:trillian.mit.edu>
N: Length of pickup notes shortened to fix the rhythms.
M: 2/4
L: 1/16
K: Bb
% - - - - - - - - - - - - - - - - - - - - - - - - -
E |\
D2B,D FDBF | DB,FD ECCE |\
TD2B,D FDBF | ecdA BB,B, ::\
e |\
d>efd gefd | ecdB ec-ce |
Td>efd gefd | ggbf dB-Be |\
d>efd gefd | ecdB ec-cd |\
DB,FD GEBG | FDec dBB :|
% - - - - - - - - - - - - - - - - - - - - - - - - -


